X: 57
T:Minuett. TBe.057
M:3/4
L:1/4
Q:80
S:Thomas Bennet MS,1718, VWML
R:minuet
O:England
H:Before 1718
Z:vmp.C. Graebe..
K:C major
"as writ"[ec] gd | G c/d/e/g/ | BGc | fgg | g/f/e/d/c/B/ |!
 cd""d | c c2 ||\
g a/g/f/e/ | d c/B/c/d/ | ""d [ec] [ec] ||
